X: 355
T:Entr\'e je suis
N: Derived from Jos2814-Entre_je_suis.krn
C: Josquin des Prez
%%abc-version 2.0
%%abcx-abcm2ps-target-version 5.9.1 (29 Sep 2008)
%%abc-creator hum2abc beta
%%abcx-conversion-date 2019/02/12 16:15:54
%%abc-edited-by Jesse Rodin
%%abc-edited-by Jesse Rodin; Victoria Chang 2011/09/04
%%abcx-initial-encoding-date 2011/09/04/
%%humdrum-veritas 3764946088
%%humdrum-veritas-data 481158231
%%linebreak <none>
%%barnumbers 0
L: 1/4
M: 2/1
Q: 1/2=120
%%staves [1 2 3 4]
V: 1 clef=treble
V: 2 clef=treble-8
V: 3 clef=treble-8
V: 4 clef=bass
K: F
[V:1] z8 | 
[V:2] G4G2G2 | 
[V:3] z8 | 
[V:4] z8 | 
[V:1] D4D2D2 | 
[V:2] d3efdf2- | 
[V:3] z8 | 
[V:4] z8 | 
[V:1] A3=Bc4 | 
[V:2] f2d2e4 | 
[V:3] z8 | 
[V:4] z8 | 
[V:1] d6c2 | 
[V:2] d3cB2A2 | 
[V:3] G4G2G2 | 
[V:4] z8 | 
[V:1] =B2G2A4 | 
[V:2] G3FD2d2 | 
[V:3] d3ef4 | 
[V:4] z8 | 
[V:1] G4z4 | 
[V:2] e2c2g4- | 
[V:3] g6f2 | 
[V:4] C,4C,2C,2 | 
[V:1] =B3cd2d2 | 
[V:2] g4G4 | 
[V:3] e4d4 | 
[V:4] G,3A,B,4 | 
[V:1] e6d2 | 
[V:2] z2cdefg2- | 
[V:3] c4z4 | 
[V:4] C6B,2 | 
[V:1] c2A2=B4 | 
[V:2] g2c2d2e2 | 
[V:3] e3fg2g2 | 
[V:4] A,4G,4 | 
[V:1] A3=Bc4 | 
[V:2] f2F4E2 | 
[V:3] a6g2 | 
[V:4] F,4z4 | 
[V:1] z2F2G3A | 
[V:2] D4C4 | 
[V:3] f2d2e4 | 
[V:4] A,3B,C2C2 | 
[V:1] B3AFGA2- | 
[V:2] B,2B3AF2 | 
[V:3] d8- | 
[V:4] D6C2 | 
[V:1] AGG4^F2 | 
[V:2] G4D4 | 
[V:3] d8- | 
[V:4] B,2G,2A,4 | 
[V:1] G8 | 
[V:2] z2G2G2G2 | 
[V:3] d8 | 
[V:4] G,8 | 
[V:1] z2D2D2D2 | 
[V:2] d3efdf2- | 
[V:3] z8 | 
[V:4] z8 | 
[V:1] A3=Bc4 | 
[V:2] f2d2e4 | 
[V:3] z8 | 
[V:4] z8 | 
[V:1] d6c2 | 
[V:2] d3cB2A2 | 
[V:3] G4G2G2 | 
[V:4] z8 | 
[V:1] =B2G2A4 | 
[V:2] G3FD2d2 | 
[V:3] d3ef4 | 
[V:4] z8 | 
[V:1] G4z4 | 
[V:2] e2c2g4- | 
[V:3] g6f2 | 
[V:4] C,4C,2C,2 | 
[V:1] =B3cd2d2 | 
[V:2] g4G4 | 
[V:3] e4d4 | 
[V:4] G,3A,B,4 | 
[V:1] e6d2 | 
[V:2] z2cdefg2- | 
[V:3] c4z4 | 
[V:4] C6B,2 | 
[V:1] c2A2=B4 | 
[V:2] g2c2d2e2 | 
[V:3] e3fg2g2 | 
[V:4] A,4G,4 | 
[V:1] A3=Bc4 | 
[V:2] f2F4E2 | 
[V:3] a6g2 | 
[V:4] F,4z4 | 
[V:1] z2F2G3A | 
[V:2] D4C4 | 
[V:3] f2d2e4 | 
[V:4] A,3B,C2C2 | 
[V:1] B3AFGA2- | 
[V:2] B,3CDEF2 | 
[V:3] d8- | 
[V:4] D6C2 | 
[V:1] AGG4^F2 | 
[V:2] G4D4 | 
[V:3] d8 | 
[V:4] B,2G,2A,4 | 
[V:1] G2d3c=B2 | 
[V:2] d8 | 
[V:3] z4B4 | 
[V:4] G,8 | 
[V:1] AGG4^F2 | 
[V:2] z8 | 
[V:3] c3BA4 | 
[V:4] z8 | 
[V:1] G8 | 
[V:2] g6fe | 
[V:3] G8 | 
[V:4] z4E,4 | 
[V:1] z8 | 
[V:2] d2c2f4 | 
[V:3] A4B4 | 
[V:4] F,3E,D,4 | 
[V:1] G2G2A2G2- | 
[V:2] e8 | 
[V:3] c6B2 | 
[V:4] C,8 | 
[V:1] G2F2B4 | 
[V:2] z8 | 
[V:3] A4G4 | 
[V:4] D,4E,4 | 
[V:1] A4z2G2 | 
[V:2] c2c2d2c2- | 
[V:3] F4z4 | 
[V:4] F,6E,2 | 
[V:1] F2D2E4 | 
[V:2] c2B4A2 | 
[V:3] A3Bc4 | 
[V:4] D,4C,4 | 
[V:1] D3EF2G2 | 
[V:2] B6AG | 
[V:3] d6e2 | 
[V:4] B,,8 | 
[V:1] A2d4c2 | 
[V:2] F2B2A4 | 
[V:3] f2d2e4 | 
[V:4] z8 | 
[V:1] d3cA2D2 | 
[V:2] D2d3ef2- | 
[V:3] d6cB | 
[V:4] z8 | 
[V:1] F3GA=BcA | 
[V:2] f2edc4 | 
[V:3] A8 | 
[V:4] D,3E,F,4 | 
[V:1] B2G2B2A2- | 
[V:2] B3AG2F2 | 
[V:3] z8 | 
[V:4] G,6A,2 | 
[V:1] A2G4^F2 | 
[V:2] E4D4 | 
[V:3] z8 | 
[V:4] B,2G,2A,4 | 
[V:1] G2B4AG | 
[V:2] z2d3cde | 
[V:3] z8 | 
[V:4] G,6F,E, | 
[V:1] A2F2B2A2- | 
[V:2] f2d2f2e2- | 
[V:3] d6c2 | 
[V:4] D,8 | 
[V:1] AGG4^F2 | 
[V:2] edd4c2 | 
[V:3] B2AGA4 | 
[V:4] z8 | 
[V:1] G8 | 
[V:2] d2B2_e2d2- | 
[V:3] G8 | 
[V:4] G,6F,2 | 
[V:1] z8 | 
[V:2] d2c4=B2 | 
[V:3] z8 | 
[V:4] E,2D,C,D,4 | 
[V:1] G3Ac2=B2- | 
[V:2] c4G4 | 
[V:3] e6d2 | 
[V:4] C,8 | 
[V:1] BAA4^G2 | 
[V:2] z8 | 
[V:3] c2=BA=B4 | 
[V:4] z8 | 
[V:1] A8 | 
[V:2] c3df2e2- | 
[V:3] A4z4 | 
[V:4] A,6G,2 | 
[V:1] z4G4 | 
[V:2] e2d4^c2 | 
[V:3] z8 | 
[V:4] F,2E,D,E,4 | 
[V:1] F3GB2A2- | 
[V:2] d2A2f3e | 
[V:3] d6c2 | 
[V:4] D,8- | 
[V:1] A2G4FE | 
[V:2] dcd3cd2 | 
[V:3] B2AGA2D2 | 
[V:4] D,8- | 
[V:1] F3GB2A2- | 
[V:2] B2A2f3e | 
[V:3] d6c2 | 
[V:4] D,8- | 
[V:1] A2G4^F2 | 
[V:2] dcd3cd2 | 
[V:3] B2AGA4 | 
[V:4] D,8 | 
[V:1] G8- | 
[V:2] B4_e4 | 
[V:3] G8- | 
[V:4] G,8- | 
[V:1] G8 |]  
[V:2] d8 |]  
[V:3] G8 |]  
[V:4] G,8 |]  



